X: 0721
T: GUMBO CHAFF
B: Oliver Ditson "The Boston Collection of Instrumental Music" 1910 p.72 #1
F: http://conquest.imslp.info/files/imglnks/usimg/8/8f/IMSLP175643-PMLP309456-bostoncollection00bost_bw.pdf
M: 4/4
L: 1/8
K: C
G>G |\
c2cc c2ce | ggag f2d2 |\
d2dd defg | aaba a2g2 |\
gggg c'2g2 | ggag g2ee |
cccc cdef | g2ag f2de |\
ffdd d2gf | eccc c2ef |\
gc'ba gfed | eccc c2 |]

%%sep 1 1 500
%%sep 1 1 500
